X: 696
T: Bill Clancy's Delight   #2
T: tai\.tnea\.m uilliam \.mic \.flann\.ca\.da
%T: Pretty Peggy
N: Variant of tune 704 (O'Neill's 1001) "Pretty Peggy"
R: reel
%S: s:2 b:16(8+8)
B: Francis O'Neill: "The Dance Music of Ireland" (1907) #696
Z: Frank Nordberg - http://www.musicaviva.com
F: http://www.musicaviva.com/abc/tunes/ireland/oneill-1001/0696/oneill-1001-0696-1.abc
M: C|
L: 1/8
K: D
"^A"\
|: d2(fd) AFDF | d2fd egfe | d2fd AFDF |[1 GEFD EDB,A, :|[2 dfeg fdd2 "^B"|: (3(FED) (AD) BDAD |
| (3(FED) (AD) CEEG |[1 (3(FED) (AD) BDAD | GEFD A,DDG :|[2 FAdf ecdB | Agfe fdd2 |]
